icons/midnadark/actions/24/format-text-direction-horizontal.svg

<?xml version="1.0" encoding="UTF-8" standalone="no"?>
<!-- Created with Inkscape (http://www.inkscape.org/) -->

<svg
   xmlns:dc="http://purl.org/dc/elements/1.1/"
   xmlns:cc="http://creativecommons.org/ns#"
   xmlns:rdf="http://www.w3.org/1999/02/22-rdf-syntax-ns#"
   xmlns:svg="http://www.w3.org/2000/svg"
   xmlns="http://www.w3.org/2000/svg"
   xmlns:sodipodi="http://sodipodi.sourceforge.net/DTD/sodipodi-0.dtd"
   xmlns:inkscape="http://www.inkscape.org/namespaces/inkscape"
   width="24"
   height="24"
   id="svg3813"
   version="1.1"
   inkscape:version="0.91 r13725"
   sodipodi:docname="format-text-direction-horizontal.svg">
  <defs
     id="defs3815" />
  <sodipodi:namedview
     id="base"
     pagecolor="#ffffff"
     bordercolor="#666666"
     borderopacity="1.0"
     inkscape:pageopacity="0.0"
     inkscape:pageshadow="2"
     inkscape:zoom="23.979306"
     inkscape:cx="3.6977785"
     inkscape:cy="14.012524"
     inkscape:document-units="px"
     inkscape:current-layer="layer1"
     showgrid="true"
     fit-margin-top="0"
     fit-margin-left="0"
     fit-margin-right="0"
     fit-margin-bottom="0"
     inkscape:window-width="1366"
     inkscape:window-height="633"
     inkscape:window-x="0"
     inkscape:window-y="33"
     inkscape:window-maximized="1"
     inkscape:showpageshadow="false"
     inkscape:snap-bbox="true">
    <inkscape:grid
       type="xygrid"
       id="grid4109"
       originx="0.99999278px"
       originy="1.0000071px" />
    <sodipodi:guide
       position="3,21"
       orientation="18,0"
       id="guide4115" />
    <sodipodi:guide
       position="3,3"
       orientation="0,18"
       id="guide4117" />
    <sodipodi:guide
       position="21,3"
       orientation="-18,0"
       id="guide4119" />
    <sodipodi:guide
       position="21,21"
       orientation="0,-18"
       id="guide4121" />
    <sodipodi:guide
       position="4,20"
       orientation="16,0"
       id="guide4123" />
    <sodipodi:guide
       position="4,4"
       orientation="0,16"
       id="guide4125" />
    <sodipodi:guide
       position="20,4"
       orientation="-16,0"
       id="guide4127" />
    <sodipodi:guide
       position="20,20"
       orientation="0,-16"
       id="guide4129" />
  </sodipodi:namedview>
  <metadata
     id="metadata3818">
    <rdf:RDF>
      <cc:Work
         rdf:about="">
        <dc:format>image/svg+xml</dc:format>
        <dc:type
           rdf:resource="http://purl.org/dc/dcmitype/StillImage" />
        <dc:title />
      </cc:Work>
    </rdf:RDF>
  </metadata>
  <g
     inkscape:label="Capa 1"
     inkscape:groupmode="layer"
     id="layer1"
     transform="translate(-377.85715,-539.07648)">
    <path
       style="opacity:1;fill:#ffffff;fill-opacity:1;stroke:none;stroke-opacity:1"
       d="M 7.9433594 4 L 4 10.828125 L 4 11 L 5.0566406 11 L 6.2109375 9 L 10.789062 9 L 11.943359 11 L 13 11 L 13 10.828125 L 9.0566406 4 L 9 4 L 7.9433594 4 z M 12 4 L 12 5 L 17 5 L 17 4 L 12 4 z M 18 4 L 18 8 L 20 6 L 18 4 z M 8.5 5.0371094 L 10.210938 8 L 6.7890625 8 L 8.5 5.0371094 z M 13 7 L 13 8 L 17 8 L 17 7 L 13 7 z M 14 10 L 14 11 L 17 11 L 17 10 L 14 10 z M 18 10 L 18 14 L 20 12 L 18 10 z M 4 13 L 4 14 L 17 14 L 17 13 L 4 13 z M 4 16 L 4 17 L 17 17 L 17 16 L 4 16 z M 18 16 L 18 20 L 20 18 L 18 16 z M 4 19 L 4 20 L 17 20 L 17 19 L 4 19 z "
       transform="translate(377.85715,539.07648)"
       id="rect4143" />
  </g>
</svg>

<svg xmlns="http://www.w3.org/2000/svg" viewBox="0 0 24 24"><path d="m7.943 4l-3.943 6.828v.172h1.057l1.154-2h4.578l1.154 2h1.057v-.172l-3.943-6.828h-.057-1.057m4.057 0v1h5v-1h-5m6 0v4l2-2-2-2m-9.5 1.037l1.711 2.963h-3.422l1.711-2.963m4.5 1.963v1h4v-1h-4m1 3v1h3v-1h-3m4 0v4l2-2-2-2m-14 3v1h13v-1h-13m0 3v1h13v-1h-13m14 0v4l2-2-2-2m-14 3v1h13v-1h-13" fill="#fff"/></svg>
